**kern	**kern	**dynam
*part1	*part1	*part1
*staff2	*staff1	*
*I"Piano	*	*
*clefF4	*clefG2	*
*k[f#c#]	*k[f#c#]	*
=1	=1	=1
4r	1B] 1e_ 1g_	.
8.r	.	.
(16C#	.	.
4D)	.	.
8.r	.	.
16E	.	.
=	=	=
*	*^	*
2FF#	2g]	1A#X 1e]	.
2r	[2f#	.	.
*	*v	*v	*
=	=	=
!	!LO:TX:a:i:t=con espress.	!
1r	4f#]	.
.	(4f#	.
.	8qa/	.
.	4.g	.
.	8f#)	.
=	=	=
*^	*	*
!	!	!LO:TX:a:t=ritard.	!
2rBB	2r	[1f#^	pp
4G 4B 4e	4FF#	.	.
4r	4r	.	.
=	=	=	=
4F# 4B 4d	4FF#	1f#]	.
4r	4r	.	.
4E 4A#X 4c#	4FF#	.	.
4r	4r	.	.
*v	*v	*	*
=	=	=
4BBB	12r	.
.	12F#L 12B	.
.	12dJ	.
(4BB	12r	.
.	12G#XL 12c#	.
.	12e#XJ	.
4AA#X	12r	.
.	12F#L 12c#	.
.	12f#J	.
4AAn	12r	.
.	12F#L 12cn	.
.	12d#XJ	.
=	=	=
4GG	12rg	.
.	12EL< 12B<	.
.	12eJ	.
4FF#	12r	.
.	12AL 12d#X	.
.	12f#J	.
4EE	12r	.
!	!LO:TX:b:i:t=cres.	!
.	12GL 12B 12e	.
.	12gJ	.
4DD)	12r	.
.	12AL 12dn 12f#	.
.	12aJ	.
=	=	=
*-	*-	*-
!!!system-decoration: {(s1,s2)}
!!!RDF**kern: < = below
